Papirus/64x64/apps/libreoffice-base.svg

<?xml version="1.0" encoding="UTF-8" standalone="no"?>
<!-- Created with Inkscape (http://www.inkscape.org/) -->

<svg
   width="64"
   height="64"
   viewBox="0 0 64 64"
   version="1.1"
   id="svg5"
   inkscape:version="1.2.2 (1:1.2.2+202305151914+b0a8486541)"
   sodipodi:docname="libreoffice-base.svg"
   xmlns:inkscape="http://www.inkscape.org/namespaces/inkscape"
   xmlns:sodipodi="http://sodipodi.sourceforge.net/DTD/sodipodi-0.dtd"
   xmlns="http://www.w3.org/2000/svg"
   xmlns:svg="http://www.w3.org/2000/svg">
  <sodipodi:namedview
     id="namedview7"
     pagecolor="#ffffff"
     bordercolor="#000000"
     borderopacity="0.25"
     inkscape:showpageshadow="2"
     inkscape:pageopacity="0.0"
     inkscape:pagecheckerboard="0"
     inkscape:deskcolor="#d1d1d1"
     inkscape:document-units="px"
     showgrid="false"
     inkscape:zoom="12.96875"
     inkscape:cx="32"
     inkscape:cy="32"
     inkscape:window-width="1920"
     inkscape:window-height="1008"
     inkscape:window-x="0"
     inkscape:window-y="0"
     inkscape:window-maximized="1"
     inkscape:current-layer="svg5" />
  <defs
     id="defs2" />
  <path
     d="M 42,5 H 54 V 17 Z M 18,5 h 20 l 16,16 v 32 c 0,4.432 -3.568,8 -8,8 H 18 c -4.432,0 -8,-3.568 -8,-8 V 13 c 0,-4.432 3.568,-8 8,-8 z"
     style="opacity:0.2;fill:#000000;stroke-width:1;stroke-linecap:square"
     id="path1115"
     sodipodi:nodetypes="ccccsccssssss" />
  <path
     d="m 18,4 h 20 l 16,16 v 32 c 0,4.432 -3.568,8 -8,8 H 18 c -4.432,0 -8,-3.568 -8,-8 V 12 c 0,-4.432 3.568,-8 8,-8 z"
     style="opacity:1;fill:#8b3ea7;fill-opacity:1;stroke-width:1;stroke-linecap:square"
     id="path1004" />
  <path
     d="M 42,4 H 54 V 16 Z"
     style="fill:#ab63c5;fill-opacity:1;stroke-width:0.75;stroke-linecap:square"
     id="path1087" />
  <path
     d="M 23.5,23 C 19.35788,23 16,23.80783 16,25 v 3 c 0,1.19217 3.35788,2 7.5,2 4.14212,0 7.5,-0.80783 7.5,-2 v -3 c 0,-1.19217 -3.35788,-2 -7.5,-2 z M 36,27 c -1.108,0 -2,0.892 -2,2 v 16 c 0,1.108 0.892,2 2,2 h 10 c 1.108,0 2,-0.892 2,-2 V 29 c 0,-1.108 -0.892,-2 -2,-2 z m 0,2 h 4 v 4 h -4 z m 6,0 h 4 v 4 h -4 z m -26,1 v 4 c 0,1.19217 3.35788,2 7.5,2 4.14212,0 7.5,-0.80783 7.5,-2 v -4 c 0,1.19217 -3.35788,2 -7.5,2 C 19.35788,32 16,31.19217 16,30 Z m 20,5 h 4 v 4 h -4 z m 6,0 h 4 v 4 h -4 z m -26,1 v 4 c 0,1.19217 3.35788,2 7.5,2 4.14212,0 7.5,-0.80783 7.5,-2 v -4 c 0,1.19217 -3.35788,2 -7.5,2 C 19.35788,38 16,37.19217 16,36 Z m 20,5 h 4 v 4 h -4 z m 6,0 h 4 v 4 h -4 z m -26,1 v 4 c 0,1.19217 3.35788,2 7.5,2 4.14212,0 7.5,-0.80783 7.5,-2 v -4 c 0,1.19217 -3.35788,2 -7.5,2 C 19.35788,44 16,43.19217 16,42 Z"
     style="opacity:0.2;fill:#000000;fill-opacity:1;stroke-width:1.93649;stroke-linecap:round;stroke-linejoin:round"
     id="path2466" />
  <path
     d="M 23.5,22 C 19.35788,22 16,22.80783 16,24 v 3 c 0,1.19217 3.35788,2 7.5,2 4.14212,0 7.5,-0.80783 7.5,-2 v -3 c 0,-1.19217 -3.35788,-2 -7.5,-2 z M 16,29 v 4 c 0,1.19217 3.35788,2 7.5,2 4.14212,0 7.5,-0.80783 7.5,-2 v -4 c 0,1.19217 -3.35788,2 -7.5,2 C 19.35788,31 16,30.19217 16,29 Z m 0,6 v 4 c 0,1.19217 3.35788,2 7.5,2 4.14212,0 7.5,-0.80783 7.5,-2 v -4 c 0,1.19217 -3.35788,2 -7.5,2 C 19.35788,37 16,36.19217 16,35 Z m 0,6 v 4 c 0,1.19217 3.35788,2 7.5,2 4.14212,0 7.5,-0.80783 7.5,-2 v -4 c 0,1.19217 -3.35788,2 -7.5,2 C 19.35788,43 16,42.19217 16,41 Z"
     style="fill:#d48ff7;fill-opacity:1;stroke-width:1.93649;stroke-linecap:round;stroke-linejoin:round"
     id="path2438" />
  <path
     d="m 36,26 c -1.108,0 -2,0.892 -2,2 v 16 c 0,1.108 0.892,2 2,2 h 10 c 1.108,0 2,-0.892 2,-2 V 28 c 0,-1.108 -0.892,-2 -2,-2 z m 0,2 h 4 v 4 h -4 z m 6,0 h 4 v 4 h -4 z m -6,6 h 4 v 4 h -4 z m 6,0 h 4 v 4 h -4 z m -6,6 h 4 v 4 h -4 z m 6,0 h 4 v 4 h -4 z"
     style="fill:#ffffff"
     id="path2410" />
  <path
     id="path2508"
     style="opacity:0.2;fill:#ffffff;stroke-width:1;stroke-linecap:square"
     d="m 18,4 c -4.431992,0 -8,3.5680092 -8,8 v 1 C 10,8.5680092 13.568008,5 18,5 H 39 L 38,4 Z m 24,0 1,1 H 54 V 4 Z" />
</svg>

<svg xmlns="http://www.w3.org/2000/svg" width="64" height="64" version="1.1">
 <path style="opacity:0.2" d="M 18,5 H 38 L 54,21 V 53 C 54,57.432 50.432,61 46,61 H 18 C 13.568,61 10,57.432 10,53 V 13 C 10,8.568 13.568,5 18,5 Z"/>
 <path style="fill:#8b3ea7" d="m 18,4 h 20 l 16,16 v 32 c 0,4.432 -3.568,8 -8,8 H 18 c -4.432,0 -8,-3.568 -8,-8 V 12 c 0,-4.432 3.568,-8 8,-8 z"/>
 <path style="fill:#ab63c5" d="M 42,4 H 54 V 16 Z"/>
 <path style="opacity:0.2" d="M 23.5,23 C 19.36,23 16,23.81 16,25 V 28 C 16,29.19 19.36,30 23.5,30 27.64,30 31,29.19 31,28 V 25 C 31,23.81 27.64,23 23.5,23 Z M 36,28 C 34.89,28 34,28.89 34,30 V 46 C 34,47.11 34.89,48 36,48 H 46 C 47.11,48 48,47.11 48,46 V 30 C 48,28.89 47.11,28 46,28 Z M 36,30 H 40 V 34 H 36 Z M 42,30 H 46 V 34 H 42 Z M 16,30 V 34 C 16,35.19 19.36,36 23.5,36 27.64,36 31,35.19 31,34 V 30 C 31,31.19 27.64,32 23.5,32 19.36,32 16,31.19 16,30 Z M 36,36 H 40 V 40 H 36 Z M 42,36 H 46 V 40 H 42 Z M 16,36 V 40 C 16,41.19 19.36,42 23.5,42 27.64,42 31,41.19 31,40 V 36 C 31,37.19 27.64,38 23.5,38 19.36,38 16,37.19 16,36 Z M 36,42 H 40 V 46 H 36 Z M 42,42 H 46 V 46 H 42 Z M 16,42 V 46 C 16,47.19 19.36,48 23.5,48 27.64,48 31,47.19 31,46 V 42 C 31,43.19 27.64,44 23.5,44 19.36,44 16,43.19 16,42 Z"/>
 <path style="fill:#d48ff7" d="M 23.5,22 C 19.36,22 16,22.81 16,24 v 3 c 0,1.19 3.36,2 7.5,2 4.14,0 7.5,-0.81 7.5,-2 v -3 c 0,-1.19 -3.36,-2 -7.5,-2 z M 16,29 v 4 c 0,1.19 3.36,2 7.5,2 4.14,0 7.5,-0.81 7.5,-2 v -4 c 0,1.19 -3.36,2 -7.5,2 C 19.36,31 16,30.19 16,29 Z m 0,6 v 4 c 0,1.19 3.36,2 7.5,2 4.14,0 7.5,-0.81 7.5,-2 v -4 c 0,1.19 -3.36,2 -7.5,2 C 19.36,37 16,36.19 16,35 Z m 0,6 v 4 c 0,1.19 3.36,2 7.5,2 4.14,0 7.5,-0.81 7.5,-2 v -4 c 0,1.19 -3.36,2 -7.5,2 C 19.36,43 16,42.19 16,41 Z"/>
 <path style="fill:#ebd9f1" d="M 36,27 C 34.892,27 34,27.892 34,29 V 45 C 34,46.108 34.892,47 36,47 H 46 C 47.108,47 48,46.108 48,45 V 29 C 48,27.892 47.108,27 46,27 Z M 36,29 H 40 V 33 H 36 Z M 42,29 H 46 V 33 H 42 Z M 36,35 H 40 V 39 H 36 Z M 42,35 H 46 V 39 H 42 Z M 36,41 H 40 V 45 H 36 Z M 42,41 H 46 V 45 H 42 Z"/>
 <path style="opacity:0.2;fill:#ffffff" d="M 42,4 43,5 H 54 V 4 Z"/>
 <path style="fill:#ffffff;opacity:0.1" d="M 18 4 C 13.568 4 10 7.568 10 12 L 10 13 C 10 8.568 13.568 5 18 5 L 38 5 L 54 21 L 54 20 L 38 4 L 18 4 z"/>
</svg>
